X:315
T: Stimme der Mutter aus dem Grabe (58), S. 183
N: T0204
O: Luxemburg
S: Singendes Volk, Esch-Alzette 1937 posth.]
N: Strassen, fff Witry, 7.3.1933
R: Liebeslieder]
M: 4/4
L: 1/8
K: A
AA | A3AB2A2 | F4D2
A2 | A3AB2A2 | E4z2
CC | C2E2E2A2 | A2cee2
e2 | d2d2F2G2 | A4z2

